X:1
T:Done Laid Around
M:4/4
L:1/4
K:G
 D D/2D/2 D E| G/2G/2 G3| B/2 B B3/2 G/2 G/2-| G4| B/2 B B- A/2G/2 G/2-|\
 G4| C A G E| D4| D D/2D/2 D E| G/2G/2 G3| B/2 B B- A/2G/2 G/2-| G2 A B|\
 B c2 E| F G A F| G4-| G4|||
